icons/exchange-dollar-fill.svg

<svg xmlns="http://www.w3.org/2000/svg" width="24" height="24" fill="none"><g clip-path="url(#a)"><g><path fill="#121212" d="M5.373 4.51C7.1997 2.88937 9.55803 1.99615 12 2C17.523 2 22 6.477 22 12C22.0033 14.0439 21.3772 16.0393 20.207 17.715L17.5 12H20C20 10.4094 19.5259 8.85481 18.6381 7.53495C17.7504 6.21509 16.4893 5.18983 15.016 4.59015C13.5428 3.99048 11.9242 3.8436 10.367 4.16829C8.80985 4.49298 7.38484 5.27449 6.274 6.413L5.374 4.511L5.373 4.51ZM18.627 19.49C16.8003 21.1106 14.442 22.0038 12 22C6.477 22 2 17.523 2 12C2 9.875 2.663 7.905 3.793 6.285L6.5 12H4C3.99997 13.5906 4.47412 15.1452 5.36188 16.465C6.24964 17.7849 7.5107 18.8102 8.98397 19.4098C10.4572 20.0095 12.0758 20.1564 13.633 19.8317C15.1901 19.507 16.6152 18.7255 17.726 17.587L18.626 19.489L18.627 19.49ZM8.5 14H14C14.1326 14 14.2598 13.9473 14.3536 13.8536C14.4473 13.7598 14.5 13.6326 14.5 13.5C14.5 13.3674 14.4473 13.2402 14.3536 13.1464C14.2598 13.0527 14.1326 13 14 13H10C9.33696 13 8.70107 12.7366 8.23223 12.2678C7.76339 11.7989 7.5 11.163 7.5 10.5C7.5 9.83696 7.76339 9.20107 8.23223 8.73223C8.70107 8.26339 9.33696 8 10 8H11V7H13V8H15.5V10H10C9.86739 10 9.74021 10.0527 9.64645 10.1464C9.55268 10.2402 9.5 10.3674 9.5 10.5C9.5 10.6326 9.55268 10.7598 9.64645 10.8536C9.74021 10.9473 9.86739 11 10 11H14C14.663 11 15.2989 11.2634 15.7678 11.7322C16.2366 12.2011 16.5 12.837 16.5 13.5C16.5 14.163 16.2366 14.7989 15.7678 15.2678C15.2989 15.7366 14.663 16 14 16H13V17H11V16H8.5V14Z"/></g></g><defs><clipPath id="a"><rect width="24" height="24" fill="white"/></clipPath></defs></svg>

<svg width="24" height="24" fill="none" xmlns="http://www.w3.org/2000/svg"><g clip-path="url(#a)"><path d="M5.373 4.51A9.962 9.962 0 0 1 12 2c5.523 0 10 4.477 10 10a9.954 9.954 0 0 1-1.793 5.715L17.5 12H20A8 8 0 0 0 6.274 6.413l-.9-1.902-.001-.001Zm13.254 14.98A9.962 9.962 0 0 1 12 22C6.477 22 2 17.523 2 12c0-2.125.663-4.095 1.793-5.715L6.5 12H4a8 8 0 0 0 13.726 5.587l.9 1.902.001.001ZM8.5 14H14a.5.5 0 0 0 0-1h-4a2.5 2.5 0 0 1 0-5h1V7h2v1h2.5v2H10a.5.5 0 0 0 0 1h4a2.5 2.5 0 0 1 0 5h-1v1h-2v-1H8.5v-2Z" /></g><defs><clipPath id="a"><path fill="#fff" d="M0 0h24v24H0z"/></clipPath></defs></svg>
